svg/justvector/google_buzz.svg

<svg xmlns="http://www.w3.org/2000/svg" viewBox="0 0 100 100" enable-background="new 0 0 100 100"><path d="m95 46.39c0 7.683-3 14.799-8.105 20.651l-26.953-27.27 22.243-18.59c7.924 6.505 12.815 15.396 12.815 25.21m-57.49 7.763l41.93-35.04c-7.894-5.481-18.18-8.805-29.438-8.805-16.361 0-30.681 7-38.557 17.479l26.07 26.37m-20.282 16.951l17.7-14.792-25.4-25.698c-2.896 4.765-4.523 10.118-4.523 15.776 0 9.567 4.648 18.257 12.223 24.714m67.36-1.629l-27.22-27.543-19.626 16.404-.406.41-.038.2-5.762 5.056h-.243l-8.286 6.528c0 .0001 0 .0001 0 .0001l-3.153 2.696c.624.449 1.326.861 1.982 1.283-1.515 4.15-3.771 8.836-7.157 13.695 7.908 3.439 16.924-1.825 23.261-7.05 3.838.855 7.881 1.326 12.06 1.326 13.902.0001 26.336-5.058 34.591-13" fill-rule="evenodd"/></svg>

<?xml version="1.0" encoding="iso-8859-1"?>
<!-- Generator: Adobe Illustrator 15.0.0, SVG Export Plug-In . SVG Version: 6.00 Build 0)  -->
<!DOCTYPE svg PUBLIC "-//W3C//DTD SVG 1.1//EN" "http://www.w3.org/Graphics/SVG/1.1/DTD/svg11.dtd">
<svg version="1.1" id="Icons" xmlns="http://www.w3.org/2000/svg" xmlns:xlink="http://www.w3.org/1999/xlink" x="0px" y="0px"
	 width="100px" height="100px" viewBox="0 0 100 100" style="enable-background:new 0 0 100 100;" xml:space="preserve">
<path id="Google_Buzz" style="fill-rule:evenodd;clip-rule:evenodd;" d="M95,46.388c0,7.683-3.003,14.799-8.105,20.651
	L59.942,39.772l22.243-18.59C90.109,27.687,95,36.578,95,46.388z M37.505,54.151l41.93-35.044
	c-7.894-5.481-18.179-8.805-29.438-8.805c-16.361,0-30.681,7.005-38.557,17.479L37.505,54.151z M17.223,71.102l17.7-14.792
	l-25.4-25.698C6.627,35.377,5,40.73,5,46.388C5,55.955,9.648,64.645,17.223,71.102z M84.585,69.473L57.361,41.93L37.735,58.334
	l-0.406,0.41l-0.038,0.2L31.529,64h-0.243L23,70.528c0,0.001,0,0.001,0,0.001l-3.153,2.696c0.624,0.449,1.326,0.861,1.982,1.283
	c-1.515,4.15-3.771,8.836-7.157,13.695c7.908,3.439,16.924-1.825,23.261-7.054c3.838,0.855,7.881,1.326,12.061,1.326
	C63.896,82.476,76.33,77.417,84.585,69.473z"/>
</svg>
